X:1017
T:Water Wynd
C:Nigel Gatherer
Z:Nigel Gatherer
M:4/4
L: 1/8
K:D
FG | AdAF GFEF | D2 FA BAFA | Beef gfed | cedB AGFG |
AdAF GFEF | D2 FA BAFA | Beef gfed | cABc d2 :|
fg | afge fage | d2 AF DFAd | Beef gfed | cba^g a2 f=g |
afge fage | d2 AF DFAd | Beef gfed | cABc d2 :|
<end>
<start>
